; generated by PrusaSlicer 2.7.1+win64 on 2024-07-03 at 14:07:38 UTC


;
;
; 

; external perimeters extrusion width = 0.60mm
; perimeters extrusion width = 0.50mm
; infill extrusion width = 0.50mm
; solid infill extrusion width = 0.50mm
; top infill extrusion width = 0.45mm
; support material extrusion width = 0.38mm
; first layer extrusion width = 0.42mm

M73 P0 R269
M73 Q0 S272
M201 X1000 Y1000 Z200 E5000 ; sets maximum accelerations, mm/sec^2
M203 X200 Y200 Z12 E120 ; sets maximum feedrates, mm / sec
M204 S1250 T1250 ; sets acceleration (S) and retract acceleration (R), mm/sec^2
M205 X8.00 Y8.00 Z0.40 E4.50 ; sets the jerk limits, mm/sec
M205 S0 T0 ; sets the minimum extruding and travel feed rate, mm/sec

; printing object couvercle_DA_Mazda v1.stl id:0 copy 0
; stop printing object couvercle_DA_Mazda v1.stl id:0 copy 0

;TYPE:Custom
M862.3 P "MK3S" ; printer model check
M862.1 P0.4 ; nozzle diameter check
M115 U3.13.2 ; tell printer latest fw version
G90 ; use absolute coordinates
M83 ; extruder relative mode
M104 S230 ; set extruder temp
M140 S85 ; set bed temp
M190 S85 ; wait for bed temp
M109 S230 ; wait for extruder temp
G28 W ; home all without mesh bed level
G80 X68.9344 Y45.9344 W112.131 H118.131 ; mesh bed levelling

G1 Z0.2 F720
G1 Y-3 F1000 ; go outside print area
G92 E0
G1 X60 E9 F1000 ; intro line
G1 X100 E12.5 F1000 ; intro line
M73 Q0 S271

G92 E0
M221 S95

; Don't change E values below. Excessive value can damage the printer.

M907 E538 ; set extruder motor current
G21 ; set units to millimeters
G90 ; use absolute coordinates
M83 ; use relative distances for extrusion
M900 K0.08 ; Filament gcode LA 1.5
M900 K45 ; Filament gcode LA 1.0

M107
;LAYER_CHANGE
;Z:0.2
;HEIGHT:0.2
;BEFORE_LAYER_CHANGE
G92 E0.0
;0.2


G1 E-1 F2100
G1 Z.2 F720
;AFTER_LAYER_CHANGE
;0.2
G1 X70.246 Y49.602 F10800
G1 Z.2 F720
G1 E1 F2100
M204 S800
;TYPE:Skirt/Brim
;WIDTH:0.42
G1 F1200
G1 X71.127 Y48.456 E.04532
G1 X72.214 Y47.505 E.04528
G1 X73.466 Y46.784 E.0453
G1 X74.835 Y46.321 E.04531
G1 X76.5 Y46.123 E.05257
G1 X173.733 Y46.134 E3.04867
G1 X175.165 Y46.321 E.04528
G1 X176.534 Y46.784 E.04531
G1 X177.786 Y47.505 E.0453
G1 X178.873 Y48.456 E.04528
G1 X179.754 Y49.602 E.04532
G1 X180.394 Y50.897 E.04529
G1 X180.77 Y52.292 E.0453
G1 X180.877 Y53.5 E.03802
G1 X180.877 Y156.5 E3.22949
G1 X180.77 Y157.708 E.03802
G1 X180.394 Y159.103 E.0453
G1 X179.754 Y160.398 E.04529
G1 X178.873 Y161.544 E.04532
G1 X177.786 Y162.495 E.04528
G1 X176.534 Y163.216 E.0453
G1 X175.165 Y163.679 E.04531
G1 X173.5 Y163.877 E.05257
G1 X76.5 Y163.877 E3.04137
G1 X75.292 Y163.77 E.03802
G1 X73.897 Y163.394 E.0453
G1 X72.602 Y162.754 E.04529
G1 X71.456 Y161.873 E.04532
G1 X70.505 Y160.786 E.04528
G1 X69.784 Y159.534 E.0453
G1 X69.321 Y158.165 E.04531
G1 X69.123 Y156.5 E.05257
G1 X69.123 Y53.5 E3.22949
G1 X69.23 Y52.292 E.03802
G1 X69.606 Y50.897 E.0453
G1 X70.22 Y49.655 E.04344
M204 S1000
; printing object couvercle_DA_Mazda v1.stl id:0 copy 0
;WIPE_START
G1 F8640
G1 X70.246 Y49.602 E-.01363
G1 X71.127 Y48.456 E-.33377
G1 X72.214 Y47.505 E-.33349
G1 X73.412 Y46.816 E-.31911
;WIPE_END
G1 Z.4 F720
G1 X152.943 Y68.155 F10800
G1 Z.2 F720
G1 E1 F2100
M204 S800
;TYPE:Support material
G1 F1200
G1 X153.856 Y68.4 E.02964
G1 X154.714 Y68.799 E.02967
G1 X155.489 Y69.342 E.02967
G1 X156.158 Y70.011 E.02966
G1 X156.701 Y70.786 E.02967
G1 X157.1 Y71.644 E.02967
G1 X157.345 Y72.557 E.02964
G1 X157.43 Y73.525 E.03047
G1 X157.43 Y132.475 E1.84834
G1 X157.345 Y133.443 E.03047
G1 X157.1 Y134.356 E.02964
G1 X156.701 Y135.214 E.02967
G1 X156.158 Y135.989 E.02967
G1 X155.489 Y136.658 E.02966
G1 X154.714 Y137.201 E.02967
G1 X153.856 Y137.6 E.02967
G1 X152.943 Y137.845 E.02964
G1 X151.975 Y137.93 E.03047
G1 X98.025 Y137.93 E1.69156
G1 X97.057 Y137.845 E.03047
G1 X96.144 Y137.6 E.02964
G1 X95.286 Y137.201 E.02967
G1 X94.511 Y136.658 E.02967
G1 X93.842 Y135.989 E.02966
G1 X93.299 Y135.214 E.02967
G1 X92.9 Y134.356 E.02967
G1 X92.655 Y133.443 E.02964
G1 X92.57 Y132.475 E.03047
G1 X92.57 Y73.525 E1.84834
G1 X92.655 Y72.557 E.03047
G1 X92.9 Y71.644 E.02964
G1 X93.299 Y70.786 E.02967
G1 X93.842 Y70.011 E.02967
G1 X94.511 Y69.342 E.02966
G1 X95.286 Y68.799 E.02967
G1 X96.144 Y68.4 E.02967
G1 X97.057 Y68.155 E.02964
G1 X98.025 Y68.07 E.03047
G1 X151.975 Y68.07 E1.69156
G1 X152.886 Y68.15 E.02867
M204 S1000
G1 X156.842 Y134.509 F10800
M204 S800
G1 F1200
G1 X156.842 Y71.991 E1.96021
G1 X156.423 Y70.994 E.03391
G1 X156.423 Y135.006 E2.00705
G1 X156.004 Y135.617 E.02323
M73 P0 R268
G1 X156.004 Y70.383 E2.04537
G1 X155.585 Y69.918 E.01963
G1 X155.585 Y136.082 E2.07453
G1 X155.166 Y136.47 E.01791
G1 X155.166 Y69.53 E2.09886
G1 X154.747 Y69.237 E.01603
G1 X154.747 Y136.763 E2.11723
G1 X154.328 Y137.006 E.01519
M73 Q0 S270
G1 X154.328 Y68.994 E2.13247
G1 X153.909 Y68.799 E.01449
G1 X153.909 Y137.201 E2.1447
G1 X153.49 Y137.347 E.01391
G1 X153.49 Y68.653 E2.15385
G1 X153.071 Y68.541 E.0136
G1 X153.071 Y137.459 E2.16088
G1 X152.652 Y137.53 E.01332
G1 X152.652 Y68.47 E2.16533
G1 X152.234 Y68.433 E.01316
G1 X152.234 Y137.567 E2.16765
G1 X151.96 Y137.591 E.00862
G1 X151.815 Y137.591 E.00455
G1 X151.815 Y68.409 E2.16915
G1 X151.396 Y68.409 E.01314
G1 X151.396 Y137.591 E2.16915
G1 X150.977 Y137.591 E.01314
G1 X150.977 Y68.409 E2.16915
G1 X150.558 Y68.409 E.01314
G1 X150.558 Y137.591 E2.16915
G1 X150.139 Y137.591 E.01314
G1 X150.139 Y68.409 E2.16915
G1 X149.72 Y68.409 E.01314
G1 X149.72 Y137.591 E2.16915
G1 X149.301 Y137.591 E.01314
G1 X149.301 Y68.409 E2.16915
G1 X148.882 Y68.409 E.01314
M73 P0 R267
G1 X148.882 Y137.591 E2.16915
G1 X148.463 Y137.591 E.01314
G1 X148.463 Y68.409 E2.16915
G1 X148.044 Y68.409 E.01314
G1 X148.044 Y137.591 E2.16915
G1 X147.625 Y137.591 E.01314
G1 X147.625 Y68.409 E2.16915
G1 X147.206 Y68.409 E.01314
M73 Q0 S269
G1 X147.206 Y137.591 E2.16915
G1 X146.787 Y137.591 E.01314
G1 X146.787 Y68.409 E2.16915
G1 X146.368 Y68.409 E.01314
G1 X146.368 Y137.591 E2.16915
G1 X145.949 Y137.591 E.01314
G1 X145.949 Y68.409 E2.16915
G1 X145.53 Y68.409 E.01314
G1 X145.53 Y137.591 E2.16915
G1 X145.111 Y137.591 E.01314
G1 X145.111 Y68.409 E2.16915
G1 X144.692 Y68.409 E.01314
G1 X144.692 Y137.591 E2.16915
G1 X144.273 Y137.591 E.01314
G1 X144.273 Y68.409 E2.16915
G1 X143.854 Y68.409 E.01314
G1 X143.854 Y137.591 E2.16915
G1 X143.435 Y137.591 E.01314
G1 X143.435 Y68.409 E2.16915
G1 X143.016 Y68.409 E.01314
G1 X143.016 Y137.591 E2.16915
G1 X142.597 Y137.591 E.01314
G1 X142.597 Y68.409 E2.16915
G1 X142.178 Y68.409 E.01314
M73 P1 R267
M73 Q1 S269
G1 X142.178 Y137.591 E2.16915
G1 X141.759 Y137.591 E.01314
G1 X141.759 Y68.409 E2.16915
G1 X141.34 Y68.409 E.01314
M73 P1 R266
G1 X141.34 Y137.591 E2.16915
G1 X140.921 Y137.591 E.01314
G1 X140.921 Y68.409 E2.16915
G1 X140.502 Y68.409 E.01314
G1 X140.502 Y137.591 E2.16915
G1 X140.083 Y137.591 E.01314
M73 Q1 S268
G1 X140.083 Y68.409 E2.16915
G1 X139.664 Y68.409 E.01314
G1 X139.664 Y137.591 E2.16915
G1 X139.245 Y137.591 E.01314
G1 X139.245 Y68.409 E2.16915
G1 X138.826 Y68.409 E.01314
G1 X138.826 Y137.591 E2.16915
G1 X138.407 Y137.591 E.01314
G1 X138.407 Y68.409 E2.16915
G1 X137.988 Y68.409 E.01314
G1 X137.988 Y137.591 E2.16915
G1 X137.569 Y137.591 E.01314
G1 X137.569 Y68.409 E2.16915
G1 X137.15 Y68.409 E.01314
G1 X137.15 Y137.591 E2.16915
G1 X136.731 Y137.591 E.01314
G1 X136.731 Y68.409 E2.16915
G1 X136.312 Y68.409 E.01314
G1 X136.312 Y137.591 E2.16915
G1 X135.893 Y137.591 E.01314
G1 X135.893 Y68.409 E2.16915
G1 X135.474 Y68.409 E.01314
G1 X135.474 Y137.591 E2.16915
G1 X135.055 Y137.591 E.01314
G1 X135.055 Y68.409 E2.16915
G1 X134.636 Y68.409 E.01314
G1 X134.636 Y137.591 E2.16915
G1 X134.217 Y137.591 E.01314
M73 P1 R265
G1 X134.217 Y68.409 E2.16915
G1 X133.799 Y68.409 E.01311
G1 X133.799 Y137.591 E2.16915
G1 X133.38 Y137.591 E.01314
G1 X133.38 Y68.409 E2.16915
G1 X132.961 Y68.409 E.01314
M73 Q1 S267
G1 X132.961 Y137.591 E2.16915
G1 X132.542 Y137.591 E.01314
G1 X132.542 Y68.409 E2.16915
G1 X132.123 Y68.409 E.01314
G1 X132.123 Y137.591 E2.16915
G1 X131.704 Y137.591 E.01314
G1 X131.704 Y68.409 E2.16915
G1 X131.285 Y68.409 E.01314
G1 X131.285 Y137.591 E2.16915
G1 X130.866 Y137.591 E.01314
G1 X130.866 Y68.409 E2.16915
G1 X130.447 Y68.409 E.01314
G1 X130.447 Y137.591 E2.16915
G1 X130.028 Y137.591 E.01314
G1 X130.028 Y68.409 E2.16915
G1 X129.609 Y68.409 E.01314
G1 X129.609 Y137.591 E2.16915
G1 X129.19 Y137.591 E.01314
G1 X129.19 Y68.409 E2.16915
G1 X128.771 Y68.409 E.01314
G1 X128.771 Y137.591 E2.16915
G1 X128.352 Y137.591 E.01314
G1 X128.352 Y68.409 E2.16915
G1 X127.933 Y68.409 E.01314
G1 X127.933 Y137.591 E2.16915
G1 X127.514 Y137.591 E.01314
G1 X127.514 Y68.409 E2.16915
G1 X127.095 Y68.409 E.01314
M73 P1 R264
G1 X127.095 Y137.591 E2.16915
G1 X126.676 Y137.591 E.01314
G1 X126.676 Y68.409 E2.16915
G1 X126.257 Y68.409 E.01314
G1 X126.257 Y137.591 E2.16915
G1 X125.838 Y137.591 E.01314
M73 Q1 S266
G1 X125.838 Y68.409 E2.16915
G1 X125.419 Y68.409 E.01314
G1 X125.419 Y137.591 E2.16915
G1 X125 Y137.591 E.01314
G1 X125 Y68.409 E2.16915
G1 X124.581 Y68.409 E.01314
G1 X124.581 Y137.591 E2.16915
G1 X124.162 Y137.591 E.01314
G1 X124.162 Y68.409 E2.16915
G1 X123.743 Y68.409 E.01314
G1 X123.743 Y137.591 E2.16915
G1 X123.324 Y137.591 E.01314
G1 X123.324 Y68.409 E2.16915
G1 X122.905 Y68.409 E.01314
M73 P2 R264
G1 X122.905 Y137.591 E2.16915
G1 X122.486 Y137.591 E.01314
M73 Q2 S266
G1 X122.486 Y68.409 E2.16915
G1 X122.067 Y68.409 E.01314
G1 X122.067 Y137.591 E2.16915
G1 X121.648 Y137.591 E.01314
G1 X121.648 Y68.409 E2.16915
G1 X121.229 Y68.409 E.01314
G1 X121.229 Y137.591 E2.16915
G1 X120.81 Y137.591 E.01314
G1 X120.81 Y68.409 E2.16915
G1 X120.391 Y68.409 E.01314
G1 X120.391 Y137.591 E2.16915
G1 X119.972 Y137.591 E.01314
M73 P2 R263
G1 X119.972 Y68.409 E2.16915
G1 X119.553 Y68.409 E.01314
G1 X119.553 Y137.591 E2.16915
G1 X119.134 Y137.591 E.01314
G1 X119.134 Y68.409 E2.16915
G1 X118.715 Y68.409 E.01314
G1 X118.715 Y137.591 E2.16915
G1 X118.296 Y137.591 E.01314
M73 Q2 S265
G1 X118.296 Y68.409 E2.16915
G1 X117.877 Y68.409 E.01314
G1 X117.877 Y137.591 E2.16915
G1 X117.458 Y137.591 E.01314
G1 X117.458 Y68.409 E2.16915
G1 X117.039 Y68.409 E.01314
G1 X117.039 Y137.591 E2.16915
G1 X116.62 Y137.591 E.01314
G1 X116.62 Y68.409 E2.16915
G1 X116.201 Y68.409 E.01314
G1 X116.201 Y137.591 E2.16915
G1 X115.783 Y137.591 E.01311
G1 X115.783 Y68.409 E2.16915
G1 X115.364 Y68.409 E.01314
G1 X115.364 Y137.591 E2.16915
G1 X114.945 Y137.591 E.01314
G1 X114.945 Y68.409 E2.16915
G1 X114.526 Y68.409 E.01314
G1 X114.526 Y137.591 E2.16915
G1 X114.107 Y137.591 E.01314
G1 X114.107 Y68.409 E2.16915
G1 X113.688 Y68.409 E.01314
G1 X113.688 Y137.591 E2.16915
G1 X113.269 Y137.591 E.01314
G1 X113.269 Y68.409 E2.16915
G1 X112.85 Y68.409 E.01314
M73 P2 R262
G1 X112.85 Y137.591 E2.16915
G1 X112.431 Y137.591 E.01314
G1 X112.431 Y68.409 E2.16915
G1 X112.012 Y68.409 E.01314
G1 X112.012 Y137.591 E2.16915
G1 X111.593 Y137.591 E.01314
G1 X111.593 Y68.409 E2.16915
G1 X111.174 Y68.409 E.01314
M73 Q2 S264
G1 X111.174 Y137.591 E2.16915
G1 X110.755 Y137.591 E.01314
G1 X110.755 Y68.409 E2.16915
G1 X110.336 Y68.409 E.01314
G1 X110.336 Y137.591 E2.16915
G1 X109.917 Y137.591 E.01314
G1 X109.917 Y68.409 E2.16915
G1 X109.498 Y68.409 E.01314
G1 X109.498 Y137.591 E2.16915
G1 X109.079 Y137.591 E.01314
G1 X109.079 Y68.409 E2.16915
G1 X108.66 Y68.409 E.01314
G1 X108.66 Y137.591 E2.16915
G1 X108.241 Y137.591 E.01314
G1 X108.241 Y68.409 E2.16915
G1 X107.822 Y68.409 E.01314
G1 X107.822 Y137.591 E2.16915
G1 X107.403 Y137.591 E.01314
G1 X107.403 Y68.409 E2.16915
G1 X106.984 Y68.409 E.01314
G1 X106.984 Y137.591 E2.16915
G1 X106.565 Y137.591 E.01314
G1 X106.565 Y68.409 E2.16915
G1 X106.146 Y68.409 E.01314
G1 X106.146 Y137.591 E2.16915
G1 X105.727 Y137.591 E.01314
M73 P2 R261
G1 X105.727 Y68.409 E2.16915
G1 X105.308 Y68.409 E.01314
G1 X105.308 Y137.591 E2.16915
G1 X104.889 Y137.591 E.01314
G1 X104.889 Y68.409 E2.16915
G1 X104.47 Y68.409 E.01314
G1 X104.47 Y137.591 E2.16915
G1 X104.051 Y137.591 E.01314
M73 Q2 S263
G1 X104.051 Y68.409 E2.16915
G1 X103.632 Y68.409 E.01314
M73 P3 R261
G1 X103.632 Y137.591 E2.16915
G1 X103.213 Y137.591 E.01314
M73 Q3 S263
G1 X103.213 Y68.409 E2.16915
G1 X102.794 Y68.409 E.01314
G1 X102.794 Y137.591 E2.16915
G1 X102.375 Y137.591 E.01314
G1 X102.375 Y68.409 E2.16915
G1 X101.956 Y68.409 E.01314
G1 X101.956 Y137.591 E2.16915
G1 X101.537 Y137.591 E.01314
G1 X101.537 Y68.409 E2.16915
G1 X101.118 Y68.409 E.01314
G1 X101.118 Y137.591 E2.16915
G1 X100.699 Y137.591 E.01314
G1 X100.699 Y68.409 E2.16915
G1 X100.28 Y68.409 E.01314
G1 X100.28 Y137.591 E2.16915
G1 X99.861 Y137.591 E.01314
G1 X99.861 Y68.409 E2.16915
G1 X99.442 Y68.409 E.01314
G1 X99.442 Y137.591 E2.16915
G1 X99.023 Y137.591 E.01314
G1 X99.023 Y68.409 E2.16915
G1 X98.604 Y68.409 E.01314
M73 P3 R260
G1 X98.604 Y137.591 E2.16915
G1 X98.185 Y137.591 E.01314
G1 X98.185 Y68.409 E2.16915
G1 X97.766 Y68.433 E.01316
G1 X97.766 Y137.567 E2.16765
G1 X97.348 Y137.53 E.01316
G1 X97.348 Y68.47 E2.16533
G1 X96.929 Y68.541 E.01332
M73 Q3 S262
G1 X96.929 Y137.459 E2.16088
G1 X96.51 Y137.347 E.0136
G1 X96.51 Y68.653 E2.15385
G1 X96.091 Y68.799 E.01391
G1 X96.091 Y137.201 E2.1447
G1 X95.672 Y137.006 E.01449
G1 X95.672 Y68.994 E2.13247
G1 X95.253 Y69.237 E.01519
G1 X95.253 Y136.763 E2.11723
G1 X94.834 Y136.47 E.01603
G1 X94.834 Y69.53 E2.09886
G1 X94.415 Y69.918 E.01791
G1 X94.415 Y136.082 E2.07453
G1 X93.996 Y135.617 E.01963
G1 X93.996 Y70.383 E2.04537
G1 X93.577 Y70.994 E.02323
G1 X93.577 Y135.006 E2.00705
G1 X93.158 Y134.009 E.03391
G1 X93.158 Y71.491 E1.96021
M204 S1000
;WIPE_START
G1 F8640
G1 X93.158 Y75.822 E-1
;WIPE_END
G1 Z.4 F720
G1 X177 Y158.838 F10800
G1 Z.2 F720
G1 E1 F2100
M204 S800
;TYPE:Perimeter
;WIDTH:0.419999
G1 F1200
G1 X176.476 Y159.476 E.02589
G1 X175.838 Y160 E.02589
G1 X175.111 Y160.389 E.02585
G1 X174.321 Y160.628 E.02588
G1 X173.461 Y160.713 E.0271
G1 X76.539 Y160.713 E3.03892
G1 X75.679 Y160.628 E.0271
G1 X74.889 Y160.389 E.02588
G1 X74.162 Y160 E.02585
G1 X73.524 Y159.476 E.02589
G1 X73 Y158.838 E.02589
G1 X72.611 Y158.111 E.02585
G1 X72.372 Y157.321 E.02588
G1 X72.287 Y156.461 E.0271
G1 X72.287 Y53.539 E3.22704
G1 X72.372 Y52.679 E.0271
G1 X72.611 Y51.889 E.02588
G1 X73 Y51.162 E.02585
G1 X73.524 Y50.524 E.02589
G1 X74.162 Y50 E.02589
G1 X74.889 Y49.611 E.02585
G1 X75.679 Y49.372 E.02588
G1 X76.539 Y49.287 E.0271
G1 X173.5 Y49.291 E3.04014
G1 X174.321 Y49.372 E.02587
M73 P3 R259
G1 X175.111 Y49.611 E.02588
G1 X175.838 Y50 E.02585
G1 X176.444 Y50.497 E.02457
G1 X177.018 Y51.196 E.02836
G1 X177.399 Y51.924 E.02576
G1 X177.632 Y52.712 E.02576
G1 X177.713 Y53.555 E.02655
G1 X177.713 Y156.461 E3.22654
G1 X177.628 Y157.321 E.0271
G1 X177.389 Y158.111 E.02588
G1 X177.028 Y158.786 E.024
M204 S1000
G1 X177.315 Y159.049 F10800
M204 S800
;TYPE:External perimeter
G1 F1200
G1 X176.744 Y159.744 E.0282
G1 X176.049 Y160.315 E.0282
G1 X175.256 Y160.739 E.02819
G1 X174.395 Y161 E.02821
G1 X173.48 Y161.09 E.02883
G1 X76.52 Y161.09 E3.04011
G1 X75.605 Y161 E.02883
M73 Q3 S261
G1 X74.744 Y160.739 E.02821
G1 X73.951 Y160.315 E.02819
G1 X73.256 Y159.744 E.0282
G1 X72.685 Y159.049 E.0282
G1 X72.261 Y158.256 E.02819
G1 X72 Y157.395 E.02821
G1 X71.91 Y156.48 E.02883
G1 X71.91 Y53.52 E3.22823
G1 X72 Y52.605 E.02883
G1 X72.261 Y51.744 E.02821
G1 X72.685 Y50.951 E.02819
G1 X73.256 Y50.256 E.0282
G1 X73.951 Y49.685 E.0282
G1 X74.744 Y49.261 E.02819
G1 X75.605 Y49 E.02821
G1 X76.52 Y48.91 E.02883
G1 X173.519 Y48.914 E3.04133
G1 X174.395 Y49 E.0276
G1 X175.256 Y49.261 E.02821
G1 X176.049 Y49.685 E.02819
G1 X176.744 Y50.256 E.0282
G1 X177.267 Y50.892 E.02582
G1 X177.529 Y51.351 E.01657
G1 X177.76 Y51.814 E.01622
G1 X178.007 Y52.675 E.02808
G1 X178.09 Y53.555 E.02771
G1 X178.09 Y156.48 E3.22714
G1 X178 Y157.395 E.02883
G1 X177.739 Y158.256 E.02821
G1 X177.343 Y158.996 E.02632
M204 S1000
;WIPE_START
G1 F8640
G1 X177.315 Y159.049 E-.01384
G1 X176.744 Y159.744 E-.20769
G1 X176.049 Y160.315 E-.20769
G1 X175.256 Y160.739 E-.20764
G1 X174.395 Y161 E-.20774
G1 X173.725 Y161.066 E-.1554
;WIPE_END
G1 Z.4 F720
G1 X171.076 Y54.28 F10800
G1 Z.2 F720
G1 E1 F2100
M204 S800
;TYPE:Perimeter
